app/src/main/assets/symbols/health/veterinary.svg

<?xml version="1.0" encoding="UTF-8" standalone="no"?>
<!-- Created with Inkscape (http://www.inkscape.org/) -->

<svg
   xmlns:dc="http://purl.org/dc/elements/1.1/"
   xmlns:cc="http://creativecommons.org/ns#"
   xmlns:rdf="http://www.w3.org/1999/02/22-rdf-syntax-ns#"
   xmlns:svg="http://www.w3.org/2000/svg"
   xmlns="http://www.w3.org/2000/svg"
   version="1.1"
   width="14"
   height="14"
   viewBox="0 0 14 14"
   id="svg2">
  <metadata
     id="metadata8">
    <rdf:RDF>
      <cc:Work
         rdf:about="">
        <dc:format>image/svg+xml</dc:format>
        <dc:type
           rdf:resource="http://purl.org/dc/dcmitype/StillImage" />
        <dc:title></dc:title>
      </cc:Work>
    </rdf:RDF>
  </metadata>
  <defs
     id="defs6" />
  <rect
     width="14"
     height="14"
     x="0"
     y="0"
     id="canvas"
     style="fill:none;stroke:none;visibility:hidden" />
  <path
     d="m 4.939089,0.12499997 c -1.4191217,0 -1.6451859,1.93046953 -1.28125,2.90625003 C 3.8887816,3.6542301 4.5922019,4.2560356 5.314089,4 6.2476315,3.5384628 6.5113975,2.3550377 6.251589,1.4375 6.1256004,0.82627427 5.6379877,0.12499997 4.939089,0.12499997 z m 3.96875,0 c -0.698899,0 -1.186511,0.7012743 -1.3125,1.31250003 C 7.335531,2.3550377 7.599299,3.5384628 8.532839,4 9.254726,4.2560356 9.9581461,3.6542301 10.189089,3.03125 10.553025,2.0554695 10.326961,0.12499997 8.907839,0.12499997 z M 0.87500002,3.21875 C 0.31441965,3.7793304 0.38782815,5.3925169 1.40625,6.0625 2.0663312,6.4008798 2.7362694,5.963358 2.96875,5.4375 3.3613536,4.6906363 3.2534654,3.6290239 2.5625,3.09375 1.9011225,2.6523191 1.3930884,2.7006617 0.87500002,3.21875 z M 11.4375,3.09375 c -0.482178,0.2783854 -0.798854,1.5968863 -0.40625,2.34375 0.232481,0.5258585 0.933669,0.9633798 1.59375,0.625 1.018422,-0.6699831 1.071545,-2.272205 0.5,-2.84375 -0.531945,-0.4452677 -1.16164,-0.4286055 -1.6875,-0.125 z M 7,4.5 C 4.5147186,4.5 2.5,6.5147186 2.5,9 c 0,2.485281 2.0147186,4.5 4.5,4.5 2.485281,0 4.5,-2.014719 4.5,-4.5 C 11.5,6.5147186 9.485281,4.5 7,4.5 z M 6,6 8,6 8,8 10,8 10,9.9999998 8,10.03125 8,12 6,12 6,9.9999998 l -2,0 L 4,8 6,8 z"
     id="veterinary"
     style="fill:#da0092;fill-opacity:1;stroke:none" />
</svg>

<?xml version="1.0" encoding="UTF-8"?>
<svg version="1.1" viewBox="0 0 14 14" xmlns="http://www.w3.org/2000/svg" xmlns:cc="http://creativecommons.org/ns#" xmlns:dc="http://purl.org/dc/elements/1.1/" xmlns:rdf="http://www.w3.org/1999/02/22-rdf-syntax-ns#">
<metadata>
<rdf:RDF>
<cc:Work rdf:about="">
<dc:format>image/svg+xml</dc:format>
<dc:type rdf:resource="http://purl.org/dc/dcmitype/StillImage"/>
<dc:title/>
</cc:Work>
</rdf:RDF>
</metadata>
<rect width="14" height="14" fill="none" visibility="hidden"/>
<path d="m4.9391 0.125c-1.4191 0-1.6452 1.9305-1.2812 2.9063 0.23094 0.62298 0.93436 1.2248 1.6562 0.96875 0.93354-0.46154 1.1973-1.645 0.9375-2.5625-0.12599-0.61123-0.6136-1.3125-1.3125-1.3125zm3.9688 0c-0.6989 0-1.1865 0.70127-1.3125 1.3125-0.25981 0.91754 0.00396 2.101 0.9375 2.5625 0.72189 0.25604 1.4253-0.34577 1.6562-0.96875 0.36394-0.97578 0.13787-2.9063-1.2812-2.9063zm-8.0328 3.0938c-0.56058 0.56058-0.48717 2.1738 0.53125 2.8438 0.66008 0.33838 1.33-0.099142 1.5625-0.625 0.3926-0.74686 0.28472-1.8085-0.40625-2.3438-0.66138-0.44143-1.1694-0.39309-1.6875 0.125zm10.562-0.125c-0.48218 0.27839-0.79885 1.5969-0.40625 2.3438 0.23248 0.52586 0.93367 0.96338 1.5938 0.625 1.0184-0.66998 1.0715-2.2722 0.5-2.8438-0.53194-0.44527-1.1616-0.42861-1.6875-0.125zm-4.4375 1.4062c-2.4853 0-4.5 2.0147-4.5 4.5 0 2.4853 2.0147 4.5 4.5 4.5 2.4853 0 4.5-2.0147 4.5-4.5 0-2.4853-2.0147-4.5-4.5-4.5zm-1 1.5h2v2h2v2l-2 0.03125v1.9688h-2v-2h-2v-2h2z" fill="#da0092"/>
</svg>
